ERK
CUT[EINSTMALS SASS ICH VOR MEINER HUETTE]
REG[Europa, Mitteleuropa, Deutschland, Hessen, Odenwald; Nassau]
TRD[]
FKT[]
SIG[E0355]
KEY[E0355   08  G 6/8]
MEL[-5-6-7  1_3212  320
    222  5_43_2  1_0
    -5-6-7  1_3212  320
    222  5_43_2  1_0
    333  542431  320
    333  542431  320
    -5-6-7  1_3212  320
    654  32121-7  5_.
    654  3215_5  1_0 //]
BEM[]
MEL_SEM[2 2 1 4 -2 -2 2 2 -2 0 0 0 5 -2 -1 -2 -2 -5 2 2 1 4 -2 -2 2 2 -2 0 0 0 5 -2 -1 -2 -2 4 0 0 3 -2 -3 3 -1 -4 4 -2 2 0 0 3 -2 -3 3 -1 -4 4 -2 -7 2 2 1 4 -2 -2 2 2 -2 7 -2 -2 -1 -2 -2 2 -2 -1 8 2 -2 -2 -1 -2 -2 7 0 -7]
MEL_RAW[-5-6-7  13212  320
    222  5432  10
    -5-6-7  13212  320
    222  5432  10
    333  542431  320
    333  542431  320
    -5-6-7  13212  320
    654  32121-7  5
    654  32155  10]
NO_REP[-5-6-713212320
    2543210
    -5-6-713212320
    2543210
    3542431320
    3542431320
    -5-6-713212320
    65432121-75
    654321510]
RTM[xxx  x_xxxx  xxx
    xxx  x_xx_x  x_x
    xxx  x_xxxx  xxx
    xxx  x_xx_x  x_x
    xxx  xxxxxx  xxx
    xxx  xxxxxx  xxx
    xxx  x_xxxx  xxx
    xxx  xxxxxx  x_.
    xxx  xxxx_x  x_x]
SCL_DEG[-5-6-7123456]
SCL_SEM[2 2 1 2 2 1 2 2]

